images/clock-with-gym.svg

<svg width="35" height="34" viewBox="0 0 35 34" fill="none" xmlns="http://www.w3.org/2000/svg">
<g clip-path="url(#clip0_419_277)">
<path d="M23.3018 16.4688H18.9539C18.8747 16.2466 18.747 16.0448 18.5802 15.8779C18.4133 15.7111 18.2115 15.5834 17.9893 15.5042V9.03134C17.9893 8.89045 17.9333 8.75532 17.8337 8.65569C17.734 8.55606 17.5989 8.50009 17.458 8.50009C17.3171 8.50009 17.182 8.55606 17.0824 8.65569C16.9827 8.75532 16.9268 8.89045 16.9268 9.03134V15.5042C16.6732 15.5934 16.4463 15.7454 16.2675 15.946C16.0886 16.1466 15.9635 16.3893 15.9039 16.6514C15.8442 16.9135 15.8521 17.1864 15.9266 17.4447C16.0011 17.703 16.1398 17.9381 16.3299 18.1282C16.52 18.3183 16.7551 18.457 17.0134 18.5315C17.2717 18.606 17.5446 18.6139 17.8067 18.5542C18.0688 18.4946 18.3115 18.3695 18.5121 18.1906C18.7128 18.0118 18.8647 17.7849 18.9539 17.5313H23.3018C23.4427 17.5313 23.5778 17.4754 23.6774 17.3757C23.777 17.2761 23.833 17.141 23.833 17.0001C23.833 16.8592 23.777 16.7241 23.6774 16.6244C23.5778 16.5248 23.4427 16.4688 23.3018 16.4688ZM17.458 17.5313C17.3529 17.5313 17.2502 17.5002 17.1629 17.4418C17.0755 17.3834 17.0074 17.3005 16.9672 17.2034C16.927 17.1063 16.9165 16.9995 16.937 16.8965C16.9575 16.7934 17.0081 16.6987 17.0824 16.6244C17.1567 16.5501 17.2513 16.4995 17.3544 16.4791C17.4574 16.4586 17.5642 16.4691 17.6613 16.5093C17.7584 16.5495 17.8414 16.6176 17.8997 16.7049C17.9581 16.7923 17.9893 16.895 17.9893 17.0001C17.9891 17.1409 17.933 17.276 17.8335 17.3755C17.7339 17.4751 17.5989 17.5312 17.458 17.5313ZM34.458 17.0001C34.4584 14.3203 33.8253 11.6784 32.6103 9.28982C31.3953 6.90129 29.6328 4.83383 27.4666 3.25612C25.3005 1.6784 22.7921 0.635127 20.146 0.211409C17.4999 -0.212308 14.7911 -0.00446613 12.2406 0.817979C9.69014 1.64042 7.37023 3.05417 5.47014 4.94389C3.57006 6.8336 2.14363 9.14574 1.30723 11.6917C0.470838 14.2376 0.24817 16.9452 0.657395 19.5936C1.06662 22.242 2.09615 24.7561 3.66198 26.9308C3.65363 26.9848 3.64813 27.0392 3.64551 27.0938V28.1563C3.64597 28.5789 3.81403 28.984 4.11282 29.2828C4.4116 29.5816 4.81671 29.7496 5.23926 29.7501H5.77051V30.9039C5.77103 31.4431 5.98546 31.9601 6.36674 32.3414C6.74802 32.7226 7.26499 32.9371 7.8042 32.9376H7.98682C8.36928 32.9366 8.74355 32.8268 9.06593 32.621C9.19543 33.0206 9.44784 33.3691 9.78714 33.6168C10.1264 33.8644 10.5353 33.9986 10.9554 34.0001H11.2106C11.7402 33.9994 12.2478 33.7888 12.6223 33.4143C12.9967 33.0399 13.2073 32.5323 13.208 32.0027V29.7501H21.708V32.0027C21.7087 32.5322 21.9193 33.0399 22.2938 33.4143C22.6682 33.7888 23.1759 33.9994 23.7054 34.0001H23.9606C24.3807 33.9986 24.7896 33.8644 25.1289 33.6168C25.4682 33.3691 25.7206 33.0206 25.8501 32.621C26.1725 32.8268 26.5467 32.9366 26.9292 32.9376H27.1118C27.651 32.9371 28.168 32.7226 28.5493 32.3414C28.9306 31.9601 29.145 31.4431 29.1455 30.9039V29.7501H29.6768C30.0993 29.7496 30.5044 29.5816 30.8032 29.2828C31.102 28.984 31.27 28.5789 31.2705 28.1563V27.0938C31.2679 27.0392 31.2624 26.9848 31.254 26.9308C33.344 24.042 34.4656 20.5656 34.458 17.0001ZM5.77051 28.6876H5.23926C5.09842 28.6874 4.9634 28.6314 4.86381 28.5318C4.76422 28.4322 4.70819 28.2972 4.70801 28.1563V27.0938C4.70819 26.953 4.76422 26.818 4.86381 26.7184C4.9634 26.6188 5.09842 26.5628 5.23926 26.5626H5.77051V28.6876ZM8.95801 30.9039C8.95768 31.1614 8.85525 31.4082 8.67319 31.5903C8.49113 31.7723 8.24429 31.8748 7.98682 31.8751H7.8042C7.54673 31.8748 7.29989 31.7723 7.11783 31.5903C6.93577 31.4082 6.83334 31.1614 6.83301 30.9039V25.4088C6.83334 25.1513 6.93577 24.9045 7.11783 24.7224C7.29989 24.5404 7.54673 24.4379 7.8042 24.4376H7.98682C8.24429 24.4379 8.49113 24.5404 8.67319 24.7224C8.85525 24.9045 8.95768 25.1513 8.95801 25.4088V30.9039ZM12.1455 32.0027C12.1453 32.2506 12.0467 32.4883 11.8715 32.6635C11.6962 32.8388 11.4585 32.9374 11.2106 32.9376H10.9554C10.7075 32.9374 10.4698 32.8388 10.2946 32.6635C10.1193 32.4883 10.0207 32.2506 10.0205 32.0027V23.2475C10.0207 22.9996 10.1193 22.7619 10.2946 22.5866C10.4698 22.4114 10.7075 22.3128 10.9554 22.3126H11.2106C11.4585 22.3128 11.6962 22.4114 11.8715 22.5866C12.0467 22.7619 12.1453 22.9996 12.1455 23.2475V32.0027ZM21.708 28.6876H13.208V26.5626H21.708V28.6876ZM24.8955 25.4088V32.0027C24.8953 32.2506 24.7967 32.4883 24.6215 32.6635C24.4462 32.8388 24.2085 32.9374 23.9606 32.9376H23.7054C23.4575 32.9374 23.2198 32.8388 23.0446 32.6635C22.8693 32.4883 22.7707 32.2506 22.7705 32.0027V23.2475C22.7707 22.9996 22.8693 22.7619 23.0446 22.5866C23.2198 22.4114 23.4575 22.3128 23.7054 22.3126H23.9606C24.2085 22.3128 24.4462 22.4114 24.6215 22.5866C24.7967 22.7619 24.8953 22.9996 24.8955 23.2475V25.4088ZM28.083 30.9039C28.0827 31.1614 27.9803 31.4082 27.7982 31.5903C27.6161 31.7723 27.3693 31.8748 27.1118 31.8751H26.9292C26.6717 31.8748 26.4249 31.7723 26.2428 31.5903C26.0608 31.4082 25.9583 31.1614 25.958 30.9039V25.4088C25.9583 25.1513 26.0608 24.9045 26.2428 24.7224C26.4249 24.5404 26.6717 24.4379 26.9292 24.4376H27.1118C27.3693 24.4379 27.6161 24.5404 27.7982 24.7224C27.9803 24.9045 28.0827 25.1513 28.083 25.4088V30.9039ZM28.2729 23.7432C27.933 23.5039 27.5275 23.3753 27.1118 23.3751H26.9292C26.5888 23.3774 26.2546 23.4662 25.958 23.6331V23.2475C25.9573 22.7179 25.7467 22.2103 25.3723 21.8358C24.9978 21.4614 24.4902 21.2508 23.9606 21.2501H23.7054C23.1759 21.2508 22.6682 21.4614 22.2938 21.8358C21.9193 22.2103 21.7087 22.7179 21.708 23.2475V25.5001H13.208V23.2475C13.2073 22.7179 12.9967 22.2103 12.6223 21.8358C12.2478 21.4614 11.7402 21.2508 11.2106 21.2501H10.9554C10.4259 21.2508 9.9182 21.4614 9.54377 21.8358C9.16933 22.2103 8.95868 22.7179 8.95801 23.2475V23.6331C8.66137 23.4662 8.32718 23.3774 7.98682 23.3751H7.8042C7.38851 23.3753 6.98303 23.5039 6.64313 23.7432C5.47643 21.8739 4.81643 19.7331 4.72805 17.5313H6.30176C6.44266 17.5313 6.57778 17.4754 6.67741 17.3757C6.77704 17.2761 6.83301 17.141 6.83301 17.0001C6.83301 16.8592 6.77704 16.7241 6.67741 16.6244C6.57778 16.5248 6.44266 16.4688 6.30176 16.4688H4.73388C4.85014 13.4585 6.03829 10.5888 8.08403 8.37733L9.19354 9.48685C9.2935 9.58481 9.42808 9.63936 9.56803 9.63865C9.70798 9.63794 9.842 9.58204 9.94096 9.48307C10.0399 9.38411 10.0958 9.25009 10.0965 9.11014C10.0972 8.97019 10.0427 8.83562 9.94473 8.73566L8.83519 7.62605C11.0466 5.58015 13.9164 4.39199 16.9268 4.27597V5.84384C16.9268 5.98474 16.9827 6.11987 17.0824 6.21949C17.182 6.31912 17.3171 6.37509 17.458 6.37509C17.5989 6.37509 17.734 6.31912 17.8337 6.21949C17.9333 6.11987 17.9893 5.98474 17.9893 5.84384V4.27597C20.9997 4.39198 23.8694 5.58013 26.0808 7.62603L24.9713 8.73563C24.9211 8.78477 24.8812 8.84337 24.8538 8.90802C24.8265 8.97268 24.8122 9.04213 24.8119 9.11233C24.8115 9.18254 24.8251 9.25212 24.8518 9.31706C24.8785 9.38199 24.9178 9.44098 24.9674 9.49063C25.0171 9.54028 25.0761 9.57959 25.141 9.60629C25.2059 9.63299 25.2755 9.64656 25.3457 9.64621C25.4159 9.64585 25.4854 9.63158 25.55 9.60422C25.6147 9.57687 25.6733 9.53696 25.7224 9.48682L26.832 8.3773C28.8777 10.5888 30.0659 13.4585 30.1821 16.4688H28.6143C28.4734 16.4688 28.3382 16.5248 28.2386 16.6244C28.139 16.7241 28.083 16.8592 28.083 17.0001C28.083 17.141 28.139 17.2761 28.2386 17.3757C28.3382 17.4754 28.4734 17.5313 28.6143 17.5313H30.188C30.0996 19.7331 29.4396 21.8739 28.2729 23.7432ZM30.208 28.1563C30.2078 28.2972 30.1518 28.4322 30.0522 28.5318C29.9526 28.6314 29.8176 28.6874 29.6768 28.6876H29.1455V26.5626H29.6768C29.8176 26.5628 29.9526 26.6188 30.0522 26.7184C30.1518 26.818 30.2078 26.953 30.208 27.0938V28.1563ZM30.6902 25.8741C30.4069 25.6341 30.048 25.5017 29.6768 25.5001H29.1455V25.4088C29.1455 25.1329 29.089 24.86 28.9795 24.6068C30.356 22.5252 31.1428 20.1094 31.2562 17.6163C31.3697 15.1233 30.8056 12.6461 29.6238 10.4479C28.4421 8.24982 26.6869 6.41294 24.5448 5.1325C22.4027 3.85206 19.9536 3.17591 17.458 3.17591C14.9624 3.17591 12.5134 3.85206 10.3712 5.1325C8.22911 6.41294 6.47391 8.24982 5.29218 10.4479C4.11045 12.6461 3.54634 15.1233 3.65979 17.6163C3.77324 20.1094 4.56003 22.5252 5.93653 24.6068C5.82703 24.86 5.77053 25.1329 5.77051 25.4088V25.5001H5.23926C4.86798 25.5017 4.50914 25.6341 4.22585 25.8741C2.83912 23.8065 1.95613 21.4427 1.64767 18.9723C1.33921 16.5019 1.61387 13.9936 2.44961 11.6485C3.28535 9.3034 4.65894 7.18673 6.46023 5.4682C8.26153 3.74967 10.4404 2.47709 12.8222 1.7525C15.204 1.02791 17.7225 0.87146 20.1756 1.2957C22.6288 1.71993 24.9485 2.71305 26.9486 4.19543C28.9487 5.6778 30.5737 7.6082 31.6933 9.83184C32.8129 12.0555 33.3958 14.5105 33.3955 17.0001C33.4003 20.1619 32.4581 23.2527 30.6902 25.8741Z" fill="#F7931E"/>
</g>
<rect x="0.958008" y="0.5" width="33" height="33" stroke="black"/>
<defs>
<clipPath id="clip0_419_277">
<rect x="0.458008" width="34" height="34" fill="white"/>
</clipPath>
</defs>
</svg>

<svg width="35" height="34" fill="none" xmlns="http://www.w3.org/2000/svg"><g clip-path="url(#a)"><path d="M23.302 16.469h-4.348a1.592 1.592 0 0 0-.965-.965V9.031a.531.531 0 0 0-1.062 0v6.473a1.59 1.59 0 1 0 2.027 2.027h4.348a.53.53 0 1 0 0-1.062Zm-5.844 1.062a.53.53 0 1 1 0-1.061.53.53 0 0 1 0 1.061Zm17-.53a17 17 0 1 0-30.796 9.93 1.554 1.554 0 0 0-.016.163v1.062a1.596 1.596 0 0 0 1.593 1.594h.532v1.154a2.036 2.036 0 0 0 2.033 2.034h.183c.382-.001.757-.111 1.079-.317a1.994 1.994 0 0 0 1.89 1.38h.255a2 2 0 0 0 1.997-1.998V29.75h8.5v2.253A2 2 0 0 0 23.705 34h.256a1.994 1.994 0 0 0 1.89-1.379c.322.206.696.316 1.078.317h.183a2.036 2.036 0 0 0 2.034-2.034V29.75h.53a1.596 1.596 0 0 0 1.595-1.594v-1.062a1.536 1.536 0 0 0-.017-.163A16.88 16.88 0 0 0 34.458 17ZM5.771 28.687h-.532a.532.532 0 0 1-.531-.532v-1.062a.532.532 0 0 1 .531-.531h.532v2.125Zm3.187 2.216a.973.973 0 0 1-.971.971h-.183a.973.973 0 0 1-.971-.971v-5.495a.973.973 0 0 1 .971-.971h.183a.973.973 0 0 1 .971.97v5.496Zm3.188 1.099a.936.936 0 0 1-.935.935h-.256a.935.935 0 0 1-.934-.935v-8.756a.936.936 0 0 1 .934-.934h.256a.936.936 0 0 1 .934.934v8.756Zm9.562-3.315h-8.5v-2.125h8.5v2.125Zm3.188-3.28v6.595a.936.936 0 0 1-.935.935h-.256a.935.935 0 0 1-.934-.935v-8.756a.936.936 0 0 1 .934-.934h.256a.936.936 0 0 1 .934.934v2.162Zm3.187 5.496a.972.972 0 0 1-.971.971h-.183a.973.973 0 0 1-.971-.971v-5.495a.973.973 0 0 1 .971-.971h.183a.973.973 0 0 1 .971.97v5.496Zm.19-7.16a2.019 2.019 0 0 0-1.161-.369h-.183c-.34.002-.674.091-.971.258v-.386a2 2 0 0 0-1.997-1.997h-.256a2 2 0 0 0-1.997 1.997V25.5h-8.5v-2.253a2 2 0 0 0-1.997-1.997h-.256a2 2 0 0 0-1.997 1.997v.386a2.008 2.008 0 0 0-.971-.258h-.183c-.415 0-.821.129-1.16.368a12.694 12.694 0 0 1-1.916-6.212h1.574a.53.53 0 1 0 0-1.062H4.734a12.634 12.634 0 0 1 3.35-8.092l1.11 1.11a.531.531 0 0 0 .75-.751l-1.109-1.11a12.631 12.631 0 0 1 8.092-3.35v1.568a.53.53 0 1 0 1.062 0V4.276c3.01.116 5.88 1.304 8.092 3.35l-1.11 1.11a.531.531 0 1 0 .751.75l1.11-1.109a12.634 12.634 0 0 1 3.35 8.092h-1.568a.531.531 0 0 0 0 1.062h1.574a12.694 12.694 0 0 1-1.915 6.212Zm1.935 4.412a.532.532 0 0 1-.531.532h-.532v-2.125h.532a.532.532 0 0 1 .531.53v1.063Zm.482-2.282a1.578 1.578 0 0 0-1.013-.374h-.532v-.091a2.02 2.02 0 0 0-.165-.802 13.811 13.811 0 1 0-23.043 0 2.02 2.02 0 0 0-.166.802v.091h-.532c-.371.002-.73.134-1.013.374A15.935 15.935 0 1 1 33.396 17a15.828 15.828 0 0 1-2.706 8.874Z" fill="#F7931E"/></g><path stroke="#000" d="M.958.5h33v33h-33z"/><defs><clipPath id="a"><path fill="#fff" d="M.458 0h34v34h-34z"/></clipPath></defs></svg>
